!!!OTL: SCHLAF MAIN KINDERL SCHLAF
!!!ARE: Europa, Mitteleuropa, Oesterreich
!!!SCT: K0109
!!!YEM: Copyright 1995, estate of Helmut Schaffrath.
**kern
*ICvox
*Ivox
*M2/4
*k[b-]
*F:
=1
{8cc
8cc
8b-
8g
=2
4f
8r}
{8a
=3
8cc
8cc
8b-
8g
=4
4f
8r}
{8f
=5
8g
8g
8g
8g
=6
8cc
8cc
8a}
{8f
=7
8g
8g
8g
8g
=8
8cc
8cc
4a}
=9
{8cc
8cc
8b-
8g
=10
4f
4r}
==
!!!AGN: Kinder -, Wiegen - Lied
!!!ONB: ESAC (Essen Associative Code) Database: KINDER
!!!AMT: simple duple
!!!AIN: vox
!!!EED: Helmut Schaffrath
!!!EEV: 1.0
*-
